X:1838
T:The Munster Lass
M:6/8
L:1/8
B:O'Neill's 1838
Z:"Transcribed by Bob Safranek, rjs@gsp.org"
Z:probably should be a repeat at start of B part
K:F
C|FAc gfef|gfe f2 f|FAc  fed|cBA G2 A|
FAc gfef|gfe  fga|gfe fed|cBA  G2  :|
b|agf    gfe|fcA  F2 b|agf  gcA|cBAB G2 b|
agf    gfe|fed  cBA|Bdg  Acf|fede  f2  :|
